static/images/mobile/copyright/wikipedia-wordmark-et.svg

<?xml version="1.0" encoding="UTF-8"?>
<svg xmlns="http://www.w3.org/2000/svg" width="121" height="18" viewBox="0 0 121 18">
	<title>
		et-wordmark
	</title>
	<g id="Page-1" fill="none" fill-rule="evenodd" stroke="none" stroke-width="1">
		<path id="et-wordmark" fill="#000" fill-rule="nonzero" d="M17.387834,2.66453526e-14 C17.5498246,0.161990629 17.5498246,0.728957829 17.387834,0.890948458 C15.6869324,1.07993752 15.2522582,2.12477741 14.7338878,3.4018032 L14.7338878,3.4018032 L9.15331035,17.1710066 C8.99671974,17.5570844 8.80233066,17.7919707 8.50534784,17.7919707 C8.23536346,17.7919707 8.04637439,17.5921824 7.88438376,17.1710066 L7.88438376,17.1710066 L2.55219224,3.34780633 C1.83403362,1.4849141 1.62074612,1.02594065 0.135832026,0.890948458 C-0.0261586028,0.728957829 -0.0531570409,0.161990629 0.108833588,2.66453526e-14 C0.999782045,0.0269984381 1.93662777,0.0539968762 2.91667115,0.0539968762 C3.88861492,0.0539968762 5.10354464,0.0269984381 6.18348216,2.66453526e-14 C6.34547279,0.161990629 6.34547279,0.728957829 6.18348216,0.890948458 C4.34758837,1.07993752 4.19099735,1.44441644 4.81736103,3.05082351 L4.81736103,3.05082351 L9.1128127,14.0391878 L9.23700568,14.0391878 L13.5000589,3.21281413 C14.0778261,1.74409844 14.0670261,1.02594065 12.0691417,0.890948458 C11.907151,0.728957829 11.907151,0.161990629 12.0691417,2.66453526e-14 C13.1760776,0.0269984381 14.3910073,0.0539968762 15.0119714,0.0539968762 C15.6329355,0.0539968762 16.5778808,0.0269984381 17.387834,2.66453526e-14 Z M26.3964729,5.26713973 C27.1254308,5.26713973 28.7623361,5.21514274 28.7623361,5.21514274 L28.7883346,5.26713973 L28.7883346,5.83910664 C28.7883346,5.91710213 28.7363376,5.94310063 28.6323436,5.96909912 L28.3463601,6.02209606 C27.5404068,6.17708709 27.2544233,6.30807951 27.2544233,6.82904938 L27.2544233,10.7558222 C28.1123737,10.7558222 28.6063451,10.3158477 29.7502789,9.09191847 C30.7902187,7.94598476 31.5961721,6.98804018 31.5961721,6.49106893 C31.5961721,6.28208102 31.3621857,6.05009444 30.8422157,5.97009907 C30.7382218,5.94610046 30.6862248,5.91810207 30.6862248,5.84010659 L30.6862248,5.2401413 L30.7122233,5.21614268 C30.7122233,5.21614268 32.8181014,5.26813968 33.5720578,5.26813968 C34.2480187,5.26813968 35.3919525,5.21614268 35.3919525,5.21614268 L35.469948,5.2401413 L35.469948,5.84010659 C35.469948,5.91810207 35.3919525,5.97009907 35.2619601,5.97009907 C34.2480187,6.04809455 33.5460593,6.10009155 32.6101135,7.16602988 L30.3742428,9.7378811 C29.9322684,10.2078539 29.7762774,10.4918375 29.7762774,10.7008254 C29.7762774,10.8568164 29.8802714,10.9858089 30.0102639,11.1417999 L33.9360368,15.8735261 C34.2480187,16.2365051 34.8719826,16.3934961 35.3919525,16.4964901 L35.521945,16.5214887 C35.5999405,16.5464872 35.7039345,16.5984842 35.7039345,16.6764797 L35.7039345,17.2224481 L35.625939,17.2484466 C35.625939,17.2484466 34.4053591,17.2254168 33.6548582,17.2227074 L33.5200608,17.2224481 C32.8700984,17.2224481 31.9341526,17.2484466 31.9341526,17.2484466 L31.9081541,17.2224481 L31.9081541,16.9104662 C31.9081541,16.5714858 31.8821556,16.2875022 31.5181766,15.8715263 L28.6323436,12.2827339 C28.2423661,11.761764 27.8263902,11.6337714 27.2544233,11.6337714 L27.2544233,15.4865485 C27.2544233,16.0585154 27.5924037,16.3444989 28.3463601,16.4744914 L28.6323436,16.5274883 C28.7103391,16.5524869 28.7883346,16.5784854 28.7883346,16.6824793 L28.7883346,17.2284478 L28.7623361,17.2814447 C28.7623361,17.2814447 27.2923048,17.2338796 26.4743926,17.2288727 L26.3444759,17.2284478 C25.6165181,17.2284478 23.4846414,17.2814447 23.4846414,17.2814447 L23.4326444,17.2284478 L23.4326444,16.6824793 C23.4326444,16.5784854 23.5106399,16.5274883 23.6146339,16.5274883 L24.1346038,16.4744914 C24.9145587,16.3964959 25.2525391,15.98052 25.2525391,15.4865485 L25.2525391,6.82904938 C25.2525391,6.25908235 24.9665557,6.10009155 24.1346038,6.02409594 L23.6146339,5.97009907 C23.5106399,5.97009907 23.4326444,5.94610046 23.4326444,5.86610508 L23.4326444,5.26713973 L23.4586429,5.21514274 C23.4586429,5.21514274 25.5905196,5.26713973 26.3964729,5.26713973 Z M59.6835472,5.26713973 L63.5053261,5.26713973 C64.285281,5.26713973 66.1321742,5.21514274 66.1321742,5.21514274 L66.186171,5.26713973 C66.2101697,6.38507506 66.3921591,7.40101629 66.5761485,8.38795919 L65.928186,8.49195317 C65.6432025,7.52900888 65.149231,6.15208854 63.4853273,6.15208854 L61.4054476,6.15208854 C60.9114762,6.15208854 60.6514912,6.33407801 60.6514912,6.7750525 L60.6514912,10.5458344 L62.6003785,10.5458344 C63.3293363,10.5458344 63.5103258,10.2338524 63.6153198,9.71388248 L63.7703108,9.16791407 C63.7703108,9.08991858 63.8233077,9.03692165 63.9263018,9.03692165 L64.3662763,9.03692165 C64.4202732,9.03692165 64.4202732,9.06392009 64.4202732,9.11491714 C64.3662763,9.6858841 64.2642822,10.4158419 64.2642822,11.0398058 C64.2642822,11.6887682 64.3682762,12.2357366 64.4202732,12.833702 L64.3662763,12.8866989 L63.9263018,12.8866989 C63.7973092,12.8866989 63.7423124,12.833702 63.7423124,12.7557065 L63.6123199,12.1847395 C63.508326,11.6637697 63.2743395,11.3777862 62.5953788,11.3777862 L60.6474915,11.3777862 L60.6474915,15.356556 C60.6474915,15.8485276 60.9304751,16.342499 61.4014479,16.342499 L63.871305,16.342499 C65.1972283,16.342499 65.927186,15.5105471 66.2371681,14.1566255 L66.8851306,14.234621 L66.3641608,17.223448 L66.3121638,17.275445 C66.3121638,17.275445 64.7782525,17.223448 63.9982976,17.223448 L59.4495608,17.2284478 C58.6696059,17.2284478 56.8767096,17.2814447 56.8767096,17.2814447 L56.8497112,17.2284478 L56.8497112,16.6564808 C56.8497112,16.6054838 56.8767096,16.5274883 57.0057021,16.5274883 L57.6056674,16.4744914 C58.4126208,16.3964959 58.6466072,15.876526 58.6466072,15.357556 L58.6466072,6.77805233 C58.6466072,6.17808703 58.3346253,6.07509299 57.6056674,6.02409594 L57.0057021,5.97009907 C56.8497112,5.94610046 56.8497112,5.89310352 56.8497112,5.86610508 L56.8497112,5.26713973 L56.8767096,5.21514274 C56.8767096,5.21514274 58.9035924,5.26713973 59.6835472,5.26713973 Z M18.6459213,5.26713973 C19.3478807,5.26713973 21.3497649,5.21514274 21.3497649,5.21514274 L21.3757634,5.26713973 L21.3757634,5.83910664 C21.3757634,5.91710213 21.3237664,5.96909912 21.2197724,5.96909912 L20.673804,6.02209606 C19.8678506,6.0990916 19.5818672,6.30807951 19.5818672,6.82904938 L19.5818672,15.4865485 C19.5818672,16.0585154 19.8418521,16.3964959 20.673804,16.4744914 L21.2197724,16.5274883 C21.2977679,16.5274883 21.3757634,16.5784854 21.3757634,16.6824793 L21.3757634,17.2284478 L21.3497649,17.2814447 C21.3497649,17.2814447 19.5494228,17.2331562 18.6847848,17.2287663 L18.5679258,17.2284478 C17.8399679,17.2284478 15.8120853,17.2814447 15.8120853,17.2814447 L15.7600883,17.2284478 L15.7600883,16.6824793 C15.7600883,16.5784854 15.8380837,16.5274883 15.9420777,16.5274883 L16.4620477,16.4744914 C17.319998,16.3964959 17.579983,15.98052 17.579983,15.4865485 L17.579983,6.82904938 C17.579983,6.25908235 17.2670011,6.10009155 16.4620477,6.02409594 L15.9420777,5.97009907 C15.8380837,5.97009907 15.7600883,5.94610046 15.7600883,5.86610508 L15.7600883,5.26713973 L15.7860868,5.21514274 C15.7860868,5.21514274 17.8399679,5.26713973 18.6459213,5.26713973 Z M112.498492,0.119437535 C112.860471,0.119437535 112.991463,0.380422437 113.198451,0.900392356 L118.528143,14.9915772 C118.893122,16.0065184 119.414092,16.3954959 120.454032,16.4994899 L120.739015,16.5244885 C120.870008,16.5244885 121,16.601484 121,16.7334764 L121,17.2254479 L120.922005,17.2784449 C120.922005,17.2784449 119.090413,17.2299562 118.042914,17.2257398 L117.905179,17.2254479 C116.995232,17.2254479 114.446379,17.2784449 114.446379,17.2784449 L114.422381,17.2254479 L114.422381,16.7334764 C114.422381,16.601484 114.474378,16.5244885 114.60737,16.5244885 L115.335328,16.4714915 C116.322271,16.394496 116.688249,16.0805142 116.427265,15.3545562 L114.841356,10.9588105 L109.431669,10.9588105 C108.807705,10.9588105 108.651714,11.0628044 108.522722,11.398785 L107.013809,15.1695669 C106.753824,15.823529 107.091805,16.3964959 108.053749,16.4744914 L108.807705,16.5274883 C108.911699,16.5274883 109.015693,16.6054838 109.015693,16.7344763 L109.015693,17.2284478 L108.963696,17.2814447 C108.963696,17.2814447 106.352033,17.2326027 105.591057,17.2286954 L105.505896,17.2284478 C104.828936,17.2284478 103.165032,17.2814447 103.165032,17.2814447 L103.112035,17.2284478 L103.112035,16.7344763 C103.112035,16.6054838 103.19003,16.5274883 103.321023,16.5274883 C104.465957,16.4494928 105.113919,16.2405049 105.841877,14.5766012 L111.612543,1.05638333 C111.897527,0.380422437 112.106514,0.119437535 112.498492,0.119437535 Z M40.3346666,5.26713973 C41.036626,5.26713973 43.0385102,5.21514274 43.0385102,5.21514274 L43.0645087,5.26713973 L43.0645087,5.83910664 C43.0645087,5.91710213 43.0125117,5.96909912 42.9085177,5.96909912 L42.3625493,6.02209606 C41.5565959,6.0990916 41.2706124,6.30807951 41.2706124,6.82904938 L41.2706124,15.4865485 C41.2706124,16.0585154 41.5305974,16.3964959 42.3625493,16.4744914 L42.9085177,16.5274883 C42.9865132,16.5274883 43.0645087,16.5784854 43.0645087,16.6824793 L43.0645087,17.2284478 L43.0385102,17.2814447 C43.0385102,17.2814447 41.238168,17.2331562 40.37353,17.2287663 L40.2566711,17.2284478 C39.5287132,17.2284478 37.5008305,17.2814447 37.5008305,17.2814447 L37.4488335,17.2284478 L37.4488335,16.6824793 C37.4488335,16.5784854 37.526829,16.5274883 37.630823,16.5274883 L38.1507929,16.4744914 C39.0087433,16.3964959 39.2687283,15.98052 39.2687283,15.4865485 L39.2687283,6.82904938 C39.2687283,6.25908235 38.9567463,6.10009155 38.1507929,6.02409594 L37.630823,5.97009907 C37.526829,5.97009907 37.4488335,5.94610046 37.4488335,5.86610508 L37.4488335,5.26713973 L37.474832,5.21514274 C37.474832,5.21514274 39.5287132,5.26713973 40.3346666,5.26713973 Z M99.1062666,5.26713973 C99.807226,5.26713973 101.81111,5.21514274 101.81111,5.21514274 L101.835109,5.26713973 L101.835109,5.83910664 C101.835109,5.91710213 101.781112,5.96909912 101.679118,5.96909912 L101.133149,6.02209606 C100.326196,6.0990916 100.041212,6.30807951 100.041212,6.82904938 L100.044212,15.4865485 C100.044212,16.0585154 100.304197,16.3964959 101.136149,16.4744914 L101.682118,16.5274883 C101.760113,16.5274883 101.838109,16.5784854 101.838109,16.6824793 L101.838109,17.2284478 L101.81211,17.2814447 C101.81211,17.2814447 100.011768,17.2331562 99.1479996,17.2287663 L99.0312709,17.2284478 C98.3023131,17.2284478 96.2754303,17.2814447 96.2754303,17.2814447 L96.2224334,17.2284478 L96.2224334,16.6824793 C96.2224334,16.5784854 96.3004289,16.5274883 96.4044229,16.5274883 L96.9253927,16.4744914 C97.7823432,16.3964959 98.0433281,15.98052 98.0433281,15.4865485 L98.0433281,6.82904938 C98.0433281,6.25908235 97.7303462,6.10009155 96.9253927,6.02409594 L96.4044229,5.97009907 C96.3004289,5.97009907 96.2224334,5.94610046 96.2224334,5.86610508 L96.2224334,5.26713973 L96.2484319,5.21514274 C96.2484319,5.21514274 98.3023131,5.26713973 99.1062666,5.26713973 Z M71.8298446,5.26713973 L75.6516235,5.26713973 C76.4315783,5.26713973 78.2784715,5.21514274 78.2784715,5.21514274 L78.3324684,5.26713973 C78.356467,6.38507506 78.5384565,7.40101629 78.7224458,8.38795919 L78.0744833,8.49195317 C77.7894998,7.52900888 77.2955284,6.15208854 75.6316246,6.15208854 L73.5517449,6.15208854 C73.0577735,6.15208854 72.7977886,6.33407801 72.7977886,6.7750525 L72.7977886,10.5458344 L74.7466758,10.5458344 C75.4756336,10.5458344 75.6566232,10.2338524 75.7616171,9.71388248 L75.9166081,9.16791407 C75.9166081,9.08991858 75.9696051,9.03692165 76.0725991,9.03692165 L76.5125737,9.03692165 C76.5665705,9.03692165 76.5665705,9.06392009 76.5665705,9.11491714 C76.5125737,9.6858841 76.4105796,10.4158419 76.4105796,11.0398058 C76.4105796,11.6887682 76.5145735,12.2357366 76.5665705,12.833702 L76.5125737,12.8866989 L76.0725991,12.8866989 C75.9436066,12.8866989 75.8886097,12.833702 75.8886097,12.7557065 L75.7586173,12.1847395 C75.6546233,11.6637697 75.4206368,11.3777862 74.7416761,11.3777862 L72.7937888,11.3777862 L72.7937888,15.356556 C72.7937888,15.8485276 73.0767724,16.342499 73.5477452,16.342499 L76.0176023,16.342499 C77.3435256,16.342499 78.0734834,15.5105471 78.3834654,14.1566255 L79.0314279,14.234621 L78.5104581,17.223448 L78.4584611,17.275445 C78.4584611,17.275445 76.9245498,17.223448 76.1445949,17.223448 L71.5958581,17.2284478 C70.8159032,17.2284478 69.0230069,17.2814447 69.0230069,17.2814447 L68.9960085,17.2284478 L68.9960085,16.6564808 C68.9960085,16.6054838 69.0230069,16.5274883 69.1519995,16.5274883 L69.7519648,16.4744914 C70.5589181,16.3964959 70.7929045,15.876526 70.7929045,15.357556 L70.7929045,6.77805233 C70.7929045,6.17808703 70.4809226,6.07509299 69.7519648,6.02409594 L69.1519995,5.97009907 C69.022007,5.95010022 69.0003416,5.90996366 68.9967307,5.88151623 L68.9960085,5.26713973 L69.0230069,5.21514274 C69.0230069,5.21514274 71.0498897,5.26713973 71.8298446,5.26713973 Z M47.8762303,5.26813968 C48.6041882,5.26813968 49.644128,5.21614268 50.6060724,5.21614268 C54.2958589,5.21614268 54.9718198,7.03503746 54.9718198,8.38895913 C54.9718198,9.94986883 54.2178634,12.3927275 50.5280769,12.3927275 C49.8781145,12.3927275 49.3581446,12.3397306 48.8891717,12.1327426 L48.8891717,15.6145411 C48.8891717,16.1855081 49.2011537,16.3175005 50.0341055,16.446493 L50.5550753,16.5244885 C50.6590693,16.549487 50.7380647,16.5774854 50.7380647,16.6794795 L50.7380647,17.2254479 L50.7140661,17.2784449 C50.7140661,17.2784449 48.818058,17.2301563 47.9447231,17.2257665 L47.8272331,17.2254479 C47.0992752,17.2254479 45.1493881,17.2784449 45.1493881,17.2784449 L45.1233896,17.2254479 L45.1233896,16.6794795 C45.1233896,16.5754855 45.1753865,16.549487 45.2793805,16.5244885 L45.8253489,16.446493 C46.6313023,16.342499 46.8912873,16.1085125 46.8912873,15.6145411 L46.8882875,6.88004643 C46.8882875,6.07409305 46.550307,6.04809455 45.3283777,5.97009907 C45.1723867,5.97009907 45.1463882,5.89310352 45.1463882,5.84010659 L45.1463882,5.24214118 L45.1983852,5.21614268 C45.5883627,5.21614268 47.1222739,5.26813968 47.8762303,5.26813968 Z M84.0001405,5.26813968 C84.492112,5.26813968 86.7559811,5.21614268 87.431942,5.21614268 C91.7736908,5.21614268 93.9065674,7.91998626 93.9065674,11.3777862 C93.9065674,15.928523 90.6817539,17.2784449 87.7979208,17.2784449 C85.8275085,17.2784449 84.9080159,17.2308797 84.1314077,17.2258729 L84.0031403,17.2254479 C83.2221855,17.2254479 81.2452999,17.2784449 81.2452999,17.2784449 L81.2203013,17.2254479 L81.2203013,16.6794795 C81.2173015,16.6054838 81.2702984,16.5274883 81.3732925,16.5274883 L81.9712579,16.4744914 C82.7522127,16.3964959 83.0121976,16.1625094 83.0121976,15.357556 L83.0121976,6.77805233 C83.0121976,6.10009155 82.8282083,6.10009155 81.9712579,6.02409594 L81.4012908,5.97009907 C81.2972969,5.97009907 81.2173015,5.91810207 81.2173015,5.84010659 L81.2173015,5.26813968 L81.2423,5.21614268 C81.2423,5.21614268 83.5311676,5.26813968 84.0001405,5.26813968 Z M86.6779856,5.97009907 C85.6640442,5.97009907 85.0140818,6.12609004 85.0140818,6.77805233 L85.0140818,15.357556 C85.0140818,16.083514 85.1950714,16.5274883 87.171957,16.5274883 C90.0307916,16.5274883 91.6446982,15.4635499 91.6446982,11.8207606 C91.6446982,9.11791696 91.0457329,5.97009907 86.6779856,5.97009907 Z M50.4500814,5.97109901 C49.2011537,5.97109901 48.8891717,6.20508547 48.8891717,6.88104637 L48.8901716,11.4047847 C49.4101416,11.6137726 50.060104,11.6387711 50.5800739,11.6387711 C52.1409836,11.6387711 52.8919401,10.7008254 52.8919401,8.70094108 C52.8919401,6.46507043 51.8779988,5.97109901 50.4500814,5.97109901 Z M111.901526,2.92827504 L111.849529,2.92827504 L109.24968,9.53189301 C109.145686,9.79387786 109.326675,9.86987346 109.898642,9.86987346 L114.42338,9.86987346 L114.42338,9.86887352 L111.901526,2.92827504 Z"/>
	</g>
</svg>

<svg xmlns="http://www.w3.org/2000/svg" width="121" height="18"><path fill="#000" fill-rule="nonzero" d="M17.388 0c.162.162.162.729 0 .89-1.701.19-2.136 1.235-2.654 2.512L9.154 17.17c-.157.386-.352.621-.649.621-.27 0-.459-.2-.62-.621L2.551 3.348C1.834 1.485 1.621 1.026.136.89-.026.729-.054.162.109 0c.89.027 1.828.054 2.808.054.972 0 2.187-.027 3.266-.054.162.162.162.729 0 .89-1.835.19-1.992.554-1.366 2.16l4.296 10.99h.124L13.5 3.212c.578-1.469.567-2.187-1.43-2.322-.163-.162-.163-.729 0-.891 1.106.027 2.321.054 2.942.054.62 0 1.566-.027 2.376-.054zm9.008 5.267c.73 0 2.366-.052 2.366-.052l.026.052v.572c0 .078-.052.104-.156.13l-.286.053c-.806.155-1.092.286-1.092.807v3.927c.858 0 1.352-.44 2.496-1.664 1.04-1.146 1.846-2.104 1.846-2.6 0-.21-.234-.442-.754-.522-.104-.024-.156-.052-.156-.13v-.6l.026-.024s2.106.052 2.86.052c.676 0 1.82-.052 1.82-.052l.078.024v.6c0 .078-.078.13-.208.13-1.014.078-1.716.13-2.652 1.196l-2.236 2.572c-.442.47-.598.754-.598.963 0 .156.104.285.234.44l3.926 4.733c.312.363.936.52 1.456.622l.13.025c.078.025.182.077.182.155v.546l-.078.026s-1.22-.023-1.971-.025h-.135c-.65 0-1.586.025-1.586.025l-.026-.026v-.312c0-.339-.026-.622-.39-1.038l-2.886-3.59c-.39-.52-.806-.648-1.378-.648v3.853c0 .572.338.857 1.092.987l.286.053c.078.025.156.051.156.155v.546l-.026.053s-1.47-.047-2.288-.052h-.13c-.727 0-2.86.052-2.86.052l-.051-.053v-.546c0-.104.078-.155.182-.155l.52-.053c.78-.078 1.118-.493 1.118-.987V6.829c0-.57-.286-.729-1.118-.805l-.52-.054c-.104 0-.182-.024-.182-.104v-.599l.026-.052s2.132.052 2.937.052zm33.288 0h3.821c.78 0 2.627-.052 2.627-.052l.054.052c.024 1.118.206 2.134.39 3.121l-.648.104c-.285-.963-.779-2.34-2.443-2.34h-2.08c-.494 0-.754.182-.754.623v3.77h1.95c.728 0 .91-.311 1.014-.831l.155-.546c0-.078.053-.131.156-.131h.44c.054 0 .054.027.054.078-.054.57-.156 1.3-.156 1.925 0 .649.104 1.196.156 1.794l-.054.053h-.44c-.129 0-.184-.053-.184-.131l-.13-.571c-.104-.521-.338-.807-1.017-.807h-1.948v3.979c0 .492.283.985.754.985h2.47c1.326 0 2.056-.831 2.366-2.185l.648.078-.52 2.988-.053.052s-1.534-.052-2.314-.052l-4.548.005c-.78 0-2.573.053-2.573.053l-.027-.053v-.572c0-.05.027-.129.156-.129l.6-.053c.807-.078 1.04-.597 1.04-1.116v-8.58c0-.6-.311-.703-1.04-.754l-.6-.054c-.156-.024-.156-.077-.156-.104v-.599l.027-.052s2.027.052 2.807.052zm-41.038 0c.702 0 2.704-.052 2.704-.052l.026.052v.572c0 .078-.052.13-.156.13l-.546.053c-.806.077-1.092.286-1.092.807v8.658c0 .572.26.91 1.092.987l.546.053c.078 0 .156.051.156.155v.546l-.026.053s-1.8-.048-2.665-.052h-.117c-.728 0-2.756.052-2.756.052l-.052-.053v-.546c0-.104.078-.155.182-.155l.52-.053c.858-.078 1.118-.493 1.118-.987V6.829c0-.57-.313-.729-1.118-.805l-.52-.054c-.104 0-.182-.024-.182-.104v-.599l.026-.052s2.054.052 2.86.052zM112.498.12c.362 0 .493.261.7.781l5.33 14.092c.365 1.015.886 1.403 1.926 1.507l.285.025c.131 0 .261.077.261.21v.491l-.078.053s-1.832-.048-2.88-.052h-.137c-.91 0-3.459.052-3.459.052l-.024-.053v-.492c0-.132.052-.209.185-.209l.728-.053c.987-.077 1.353-.39 1.092-1.116l-1.586-4.396h-5.41c-.623 0-.78.104-.908.44l-1.51 3.77c-.26.655.079 1.227 1.04 1.305l.755.053c.104 0 .208.078.208.207v.494l-.052.053s-2.612-.048-3.373-.052h-.085c-.677 0-2.341.052-2.341.052l-.053-.053v-.494c0-.129.078-.207.209-.207 1.145-.078 1.793-.286 2.52-1.95l5.772-13.52c.285-.677.494-.938.885-.938zM40.335 5.267c.702 0 2.704-.052 2.704-.052l.026.052v.572c0 .078-.052.13-.156.13l-.546.053c-.806.077-1.092.286-1.092.807v8.658c0 .572.26.91 1.092.987l.546.053c.078 0 .156.051.156.155v.546l-.026.053s-1.8-.048-2.665-.052h-.117c-.728 0-2.756.052-2.756.052l-.052-.053v-.546c0-.104.078-.155.182-.155l.52-.053c.858-.078 1.118-.493 1.118-.987V6.829c0-.57-.312-.729-1.118-.805l-.52-.054c-.104 0-.182-.024-.182-.104v-.599l.026-.052s2.054.052 2.86.052zm58.771 0c.701 0 2.705-.052 2.705-.052l.024.052v.572c0 .078-.054.13-.156.13l-.546.053c-.807.077-1.092.286-1.092.807l.003 8.658c0 .572.26.91 1.092.987l.546.053c.078 0 .156.051.156.155v.546l-.026.053s-1.8-.048-2.664-.052h-.117c-.729 0-2.756.052-2.756.052l-.053-.053v-.546c0-.104.078-.155.182-.155l.521-.053c.857-.078 1.118-.493 1.118-.987V6.829c0-.57-.313-.729-1.118-.805l-.52-.054c-.105 0-.183-.024-.183-.104v-.599l.026-.052s2.054.052 2.858.052zm-27.276 0h3.822c.78 0 2.626-.052 2.626-.052l.054.052c.024 1.118.206 2.134.39 3.121l-.648.104c-.285-.963-.778-2.34-2.442-2.34h-2.08c-.494 0-.754.182-.754.623v3.77h1.949c.729 0 .91-.311 1.015-.831l.155-.546c0-.078.053-.131.156-.131h.44c.054 0 .054.027.054.078-.054.57-.156 1.3-.156 1.925 0 .649.104 1.196.156 1.794l-.054.053h-.44c-.13 0-.184-.053-.184-.131l-.13-.571c-.104-.521-.338-.807-1.017-.807h-1.948v3.979c0 .492.283.985.754.985h2.47c1.326 0 2.055-.831 2.365-2.185l.648.078-.52 2.988-.053.052s-1.533-.052-2.313-.052l-4.55.005c-.78 0-2.572.053-2.572.053l-.027-.053v-.572c0-.05.027-.129.156-.129l.6-.053c.807-.078 1.04-.597 1.04-1.116v-8.58c0-.6-.311-.703-1.04-.754l-.6-.054c-.13-.02-.152-.06-.155-.088l-.001-.615.027-.052s2.027.052 2.807.052zm-23.954.001c.728 0 1.768-.052 2.73-.052 3.69 0 4.366 1.819 4.366 3.173 0 1.56-.754 4.004-4.444 4.004-.65 0-1.17-.053-1.639-.26v3.482c0 .57.312.703 1.145.831l.521.078c.104.025.183.053.183.155v.546l-.024.053s-1.896-.048-2.77-.052h-.117c-.728 0-2.678.052-2.678.052l-.026-.053v-.546c0-.104.052-.13.156-.155l.546-.078c.806-.104 1.066-.337 1.066-.831l-.003-8.735c0-.806-.338-.832-1.56-.91-.156 0-.182-.077-.182-.13v-.598l.052-.026c.39 0 1.924.052 2.678.052zm36.124 0c.492 0 2.756-.052 3.432-.052 4.342 0 6.475 2.704 6.475 6.162 0 4.55-3.225 5.9-6.11 5.9-1.97 0-2.889-.047-3.666-.052h-.128c-.78 0-2.758.052-2.758.052l-.025-.053v-.546a.145.145 0 0 1 .153-.152l.598-.053c.781-.078 1.041-.311 1.041-1.116v-8.58c0-.678-.184-.678-1.04-.754l-.57-.054c-.105 0-.185-.052-.185-.13v-.572l.025-.052s2.29.052 2.758.052zm2.678.702c-1.014 0-1.664.156-1.664.808v8.58c0 .726.181 1.17 2.158 1.17 2.859 0 4.473-1.064 4.473-4.707 0-2.703-.6-5.85-4.967-5.85zm-36.228.001c-1.249 0-1.56.234-1.56.91v4.524c.52.209 1.17.234 1.69.234 1.561 0 2.312-.938 2.312-2.938 0-2.236-1.014-2.73-2.442-2.73zm61.452-3.043h-.052l-2.6 6.604c-.104.262.077.338.649.338h4.524v-.001l-2.521-6.94z"/></svg>
